src/images/github.svg

<svg xmlns="http://www.w3.org/2000/svg" height="24" width="24" fill="#3D3D3D"><path d="M12 2.247c-9.32 0-13.264 12.558-5.906 18.07a9.717 9.717 0 002.745 1.419c1.181.22.67-2.14.669-2.343-2.782.605-3.369-1.18-3.369-1.18-.455-1.156-1.11-1.463-1.11-1.463-.907-.621.068-.608.068-.608 1.005.071 1.533 1.031 1.533 1.031.892 1.528 2.34 1.086 2.91.831.09-.646.349-1.088.635-1.337-1.041-.119-2.29-.403-3.111-1.129-1.78-1.576-2.036-4.72-.415-6.498-.103-.251-.446-1.268.097-2.646 0 0 .84-.269 2.751 1.025a9.498 9.498 0 015.008 0c1.909-1.294 2.747-1.025 2.747-1.025.545 1.378.202 2.395.099 2.646 1.624 1.776 1.365 4.928-.419 6.499-.823.725-2.076 1.004-3.118 1.12 1.238 1.072.611 3.313.666 4.596.018.418.326.55.687.48a9.709 9.709 0 002.743-1.42C25.263 14.801 21.319 2.247 12 2.247"/></svg>

<svg xmlns="http://www.w3.org/2000/svg" height="24px" viewBox="0 0 24 24" width="24px" fill="#3D3D3D">
    <path d="M12,2.247C2.68,2.247 -1.264,14.805 6.094,20.317C6.918,20.934 7.862,21.411 8.839,21.736C10.02,21.956 9.509,19.596 9.508,19.393C6.726,19.998 6.139,18.213 6.139,18.213C5.684,17.057 5.029,16.75 5.029,16.75C4.122,16.129 5.097,16.142 5.097,16.142C6.102,16.213 6.63,17.173 6.63,17.173C7.522,18.701 8.97,18.259 9.54,18.004C9.63,17.358 9.889,16.916 10.175,16.667C9.134,16.548 7.885,16.264 7.064,15.538C5.284,13.962 5.028,10.818 6.649,9.04C6.546,8.789 6.203,7.772 6.746,6.394C6.746,6.394 7.586,6.125 9.497,7.419C11.116,6.971 12.886,6.971 14.505,7.419C16.414,6.125 17.252,6.394 17.252,6.394C17.797,7.772 17.454,8.789 17.351,9.04C18.975,10.816 18.716,13.968 16.932,15.539C16.109,16.264 14.856,16.543 13.814,16.659C15.052,17.731 14.425,19.972 14.48,21.255C14.498,21.673 14.806,21.805 15.167,21.735C16.144,21.409 17.086,20.933 17.91,20.315C25.263,14.801 21.319,2.247 12,2.247"
          />
</svg>
